!!!!SEGMENT: Wil3003-Mon_petit_cueur.krn
!!!id: Wil3003
!!!AGN: Madrigal
!!!SCT: Thomas (1986)
!!!voices: 4
!!!COM: Adrian Willaert
!!!OTL: Mon petit cueur
**kern	**kern	**kern	**kern
*part4	*part3	*part2	*part1
*staff4	*staff3	*staff2	*staff1
*I"Bassus	*I"Tenor	*I"Altus	*I"Superius
*I'B	*I'T	*I'A	*I'S
*clefF4	*clefGv2	*clefGv2	*clefG2
*k[]	*k[b-]	*k[]	*k[b-]
*C:	*F:	*C:	*F:
*M2/1	*M2/1	*M2/1	*M2/1
*met(C|)	*met(C|)	*met(C|)	*met(C|)
=1	=1	=1	=1
!LO:TX:a:t=Canon&colon; bassus/tenor at the fourth	!	!LO:TX:a:t=Canon&colon; altus/superius at the fourth	!
0r	0r	1d	1r
.	.	1e	1g
=2	=2	=2	=2
1D	1r	2d	1a
.	.	2.d	.
1E	1G	.	2g
.	.	8cL	.
.	.	8BJ	.
.	.	2c	[2g
=3	=3	=3	=3
1D	1A	2d	4g]
.	.	.	8fL
.	.	.	8eJ
.	.	2f	2f
1G	1G	2e	2g
.	.	2d	2b-y
=4	=4	=4	=4
2r	1c	2c	2a
2C	.	2.e	2g
1D	2r	.	2f
.	.	4d	.
.	2F	[2d	[2a
=5	=5	=5	=5
1E	1G	2d]	4a]
.	.	.	4g
.	.	2c#i	1g
1D	1A	1d	.
.	.	.	2f#i
=6	=6	=6	=6
0r	1G	2r	1g
.	.	2d	.
.	1r	2f	2r
.	.	2e	2g
=7	=7	=7	=7
2r	1r	1d	2b-y
2D	.	.	2a
2E	2r	2r	1g
2E	2G	2c	.
=8	=8	=8	=8
1D	2A	2d	2r
.	2A	2f	2f
1E	1G	2.e	2g
.	.	.	2b-y
.	.	4d	.
=9	=9	=9	=9
1F	1A	2c	2.a
.	.	2.f	.
.	.	.	4g
1D	1B-y	.	2f
.	.	4e	.
.	.	[2d	[2b-y
=10	=10	=10	=10
1E	1G	2d]	4b-]
.	.	.	4a
.	.	2c#i	1g
1D	1A	1d	.
.	.	.	2f#i
=11	=11	=11	=11
2r	1G	0r	1g
2E	.	.	.
2C	2r	.	1r
2C	2A	.	.
=12	=12	=12	=12
1D	2F	2r	1r
.	2F	2d	.
1C	1G	2e	2r
.	.	2c	2g
=13	=13	=13	=13
2F	1F	2d	2a
2D	.	2f	2f
1G	2B-y	2e	2g
.	2G	[2d	2b-y
=14	=14	=14	=14
1C	1c	4d]	2a
.	.	4c	.
.	.	1c	2.g
1D	1F	.	.
.	.	.	4f
.	.	2B	[2f
=15	=15	=15	=15
1C	1G	1c	2f]
.	.	.	2e
1r	1F	2r	1f
.	.	2f	.
=16	=16	=16	=16
0r	0r	2e	2r
.	.	2d	2b-y
.	.	1c	2a
.	.	.	2g
=17	=17	=17	=17
0r	0r	2r	1f
.	.	2d	.
.	.	1e	2r
.	.	.	2g
=18	=18	=18	=18
1D	1r	2d	1a
.	.	2.d	.
1E	1G	.	2g
.	.	8cL	.
.	.	8BJ	.
.	.	2c	[2g
=19	=19	=19	=19
1D	1A	2d	4g]
.	.	.	8fL
.	.	.	8eJ
.	.	2f	2f
1G	1G	2e	2g
.	.	2d	2b-y
=20	=20	=20	=20
2r	1c	2c	2a
2C	.	2.e	2g
1D	2r	.	2f
.	.	4d	.
.	2F	[2d	[2a
=21	=21	=21	=21
1E	1G	2d]	4a]
.	.	.	4g
.	.	2c	1g
1D	1A	2d	.
.	.	2a	2f#i
=22	=22	=22	=22
1G	1G	2b	2g
.	.	2.g	2dd
2r	1c	.	2ee
.	.	4f	.
2C	.	[2e	[2cc
=23	=23	=23	=23
1D	2r	4e]	4cc]
.	.	4d	4b-y
.	2F	1d	2.a
1E	1G	.	.
.	.	.	4g
.	.	2c#i	[2g
=24	=24	=24	=24
1D	1A	2d	2g]
.	.	2A	2f#i
2.G	1G	4B	2g
.	.	4c	.
.	.	4d	2d
4F	.	4B	.
=25	=25	=25	=25
2E	2.c	4c	4e
.	.	4d	4f
2C	.	1e	4g
.	4B-y	.	4e
1D	2A	.	4f
.	.	.	4g
.	2F	[2d	[2a
=26	=26	=26	=26
1E	1G	2d]	2a]
.	.	2c#i	1g
1D	1A	[1dl	.
.	.	.	2f#i
=27	=27	=27	=27
00Gl	00Gl	00d]	00gl
==	==	==	==
*-	*-	*-	*-
!!!system-decoration: [*]
!!!RDF**kern: i = editorial accidental
!!!RDF**kern: l = terminal long
!!!ENC: Benjamin Ory
!!!END: 2020/12/18
!!!EED: Benjamin Ory
!!!EEV: 2021/04/30
!!!YEC: Copyright 2021 Benjamin Ory, All Rights Reserved
!!!ONB: Translated from MusicXML on 2021/04/30
